icons/fill-new-other-sport-football.svg

<svg xmlns="http://www.w3.org/2000/svg" width="32px" height="32px" viewBox="0 0 32 32" version="1.1">
    <title>fill-new-other-sport-football</title>
    <g id="fill-new-other-sport-football" stroke-width="1" fill-rule="evenodd">
        <path d="M13.5949827,29.1521288 C9.89518821,29.8065604 6.51694029,29.1443573 4.6862915,27.3137085 C2.85564271,25.4830597 2.19343955,22.1048118 2.84787122,18.4050173 L13.5949827,29.1521288 Z M28.5934824,15.8652597 C27.7239364,18.6221194 26.138002,21.4183471 23.7781746,23.7781746 C21.4180404,26.1383088 18.6213923,27.7243488 15.8641844,28.5938215 L3.40617854,16.1358156 C4.27565125,13.3786077 5.86169117,10.5819596 8.22182541,8.22182541 C10.5816529,5.86199796 13.3778806,4.27606359 16.1347403,3.40651764 L28.5934824,15.8652597 Z M20.9497475,11.0502525 C20.5592232,10.6597282 19.9260582,10.6597282 19.5355339,11.0502525 L18.8284271,11.7573593 L17.4142136,10.3431458 C17.0515839,9.98051605 16.4797385,9.95461393 16.0872208,10.2654394 L16,10.3431458 C15.6094757,10.73367 15.6094757,11.366835 16,11.7573593 L17.4142136,13.1715729 L16,14.5857864 L14.5857864,13.1715729 C14.2231567,12.8089432 13.6513113,12.7830411 13.2587937,13.0938665 L13.1715729,13.1715729 C12.7810486,13.5620972 12.7810486,14.1952621 13.1715729,14.5857864 L14.5857864,16 L13.1715729,17.4142136 L11.7573593,16 C11.3947296,15.6373703 10.8228842,15.6114682 10.4303666,15.9222936 L10.3431458,16 C9.95262146,16.3905243 9.95262146,17.0236893 10.3431458,17.4142136 L11.7573593,18.8284271 L11.0502525,19.5355339 C10.6876228,19.8981636 10.6617207,20.470009 10.9725462,20.8625267 L11.0502525,20.9497475 C11.4407768,21.3402718 12.0739418,21.3402718 12.4644661,20.9497475 L13.1715729,20.2426407 L14.5857864,21.6568542 C14.9484161,22.0194839 15.5202615,22.0453861 15.9127792,21.7345606 L16,21.6568542 C16.3905243,21.26633 16.3905243,20.633165 16,20.2426407 L14.5857864,18.8284271 L16,17.4142136 L17.4142136,18.8284271 C17.7768433,19.1910568 18.3486887,19.2169589 18.7412063,18.9061335 L18.8284271,18.8284271 C19.2189514,18.4379028 19.2189514,17.8047379 18.8284271,17.4142136 L17.4142136,16 L18.8284271,14.5857864 L20.2426407,16 C20.6052704,16.3626297 21.1771158,16.3885318 21.5696334,16.0777064 L21.6568542,16 C22.0473785,15.6094757 22.0473785,14.9763107 21.6568542,14.5857864 L20.2426407,13.1715729 L20.9497475,12.4644661 C21.3123772,12.1018364 21.3382793,11.529991 21.0274538,11.1374733 L20.9497475,11.0502525 Z M27.3137085,4.6862915 C29.1445566,6.5171396 29.8067046,9.89592382 29.151915,13.5961912 L18.4038088,2.84808502 C22.1040762,2.19329537 25.4828604,2.8554434 27.3137085,4.6862915 Z" id="&#24418;&#29366;" />
    </g>
</svg>

<svg xmlns="http://www.w3.org/2000/svg" viewBox="0 0 32 32"><path fill="currentColor" d="M13.595 29.152c-3.7.655-7.078-.008-8.909-1.838-1.83-1.83-2.493-5.21-1.838-8.909zm14.998-13.287a19.585 19.585 0 0 1-12.729 12.729L3.406 16.136a19.585 19.585 0 0 1 12.729-12.73zM20.95 11.05a1 1 0 0 0-1.414 0l-.708.707-1.414-1.414a1 1 0 0 0-1.327-.078l-.087.078a1 1 0 0 0 0 1.414l1.414 1.415L16 14.586l-1.414-1.414a1 1 0 0 0-1.327-.078l-.087.078a1 1 0 0 0 0 1.414L14.586 16l-1.414 1.414L11.757 16a1 1 0 0 0-1.327-.078l-.087.078a1 1 0 0 0 0 1.414l1.414 1.414-.707.708a1 1 0 0 0-.077 1.327l.077.087a1 1 0 0 0 1.414 0l.708-.707 1.414 1.414a1 1 0 0 0 1.327.078l.087-.078a1 1 0 0 0 0-1.414l-1.414-1.415L16 17.414l1.414 1.414a1 1 0 0 0 1.327.078l.087-.078a1 1 0 0 0 0-1.414L17.414 16l1.414-1.414L20.243 16a1 1 0 0 0 1.327.078l.087-.078a1 1 0 0 0 0-1.414l-1.414-1.414.707-.708a1 1 0 0 0 .077-1.327zm6.364-6.364c1.83 1.831 2.493 5.21 1.838 8.91L18.404 2.848c3.7-.655 7.079.007 8.91 1.838"/></svg>
